icons/system-log.svg

<svg xmlns="http://www.w3.org/2000/svg" viewBox="0 0 36 36">
    <title>system-log</title>
    <g id="System-log" stroke="none" stroke-width="1" fill="none" fill-rule="evenodd">
        <g id="window" transform="translate(2.000000, 3.000000)" fill-rule="nonzero">
            <rect id="Rectangle-path" fill="#6a7a81" x="3" y="3" width="2" height="2"></rect>
            <rect id="Rectangle-path" fill="#6a7a81" x="7" y="3" width="2" height="2"></rect>
            <rect id="Rectangle-path" fill="#6a7a81" x="11" y="3" width="2" height="2"></rect>
            <path d="M30,0 L2,0 C0.8954305,0 0,0.959389822 0,2.14285714 L0,27.8571429 C0,29.0406102 0.8954305,30 2,30 L30,30 C31.1045695,30 32,29.0406102 32,27.8571429 L32,2.14285714 C32,0.959389822 31.1045695,0 30,0 Z M2,2 L30,2 L30,7 L2,7 L2,2 Z M2,28 L2,8.8 L30,8.8 L30,28 L2,28 Z" id="Shape" fill="#6a7a81"></path>
            <g id="log" transform="translate(8.500000, 11.000000)">
                <circle id="Oval" fill="" cx="7.3" cy="7.3" r="7.3"></circle>
                <circle id="Oval" fill="#0079ad" cx="7.3" cy="7.3" r="7.3"></circle>
                <circle id="Oval" fill="white" cx="7.08480392" cy="2.67303922" r="1"></circle>
                <path d="M8.63995098,11.0441176 L7.80661765,11.0441176 L7.80661765,5.29411765 L6.27328431,5.29411765 C5.97182889,5.29411765 5.72745098,5.53849555 5.72745098,5.83995098 C5.72745098,6.14140641 5.97182889,6.38578431 6.27328431,6.38578431 L6.67328431,6.38578431 L6.67328431,11.0441176 L5.83995098,11.0441176 C5.53849555,11.0441176 5.29411765,11.2884956 5.29411765,11.589951 C5.29411765,11.8914064 5.53849555,12.1357843 5.83995098,12.2357843 L8.62328431,12.1357843 C8.92473974,12.1357843 9.16911765,11.8914064 9.16911765,11.589951 C9.16911765,11.2884956 8.92473974,11.0441176 8.62328431,11.0441176 L8.63995098,11.0441176 Z" id="Shape" fill="white"></path>
            </g>
        </g>
        <rect id="Rectangle" x="0" y="0" width="36" height="36"></rect>
    </g>
</svg>

<svg xmlns="http://www.w3.org/2000/svg" viewBox="0 0 36 36">
  <title>system-log</title>
  <g id="System-log" fill="none" fill-rule="evenodd" stroke="none" stroke-width="1">
    <g id="window" fill-rule="nonzero" transform="translate(2 3)">
      <path id="Rectangle-path" fill="hsl(198, 10%, 46%)" d="M3 3h2v2H3zm4 0h2v2H7zm4 0h2v2h-2z"/>
      <path id="Shape" fill="hsl(198, 10%, 46%)" d="M30 0H2C.895 0 0 .96 0 2.143v25.714C0 29.041.895 30 2 30h28c1.105 0 2-.96 2-2.143V2.143C32 .959 31.105 0 30 0M2 2h28v5H2zm0 26V8.8h28V28z"/>
      <g id="log" transform="translate(8.5 11)">
        <circle id="Oval" cx="7.3" cy="7.3" r="7.3" fill="hsl(198, 100%, 34%)"/>
        <circle id="Oval" cx="7.085" cy="2.673" r="1" fill="hsl(0, 0%, 100%)"/>
        <path id="Shape" fill="hsl(0, 0%, 100%)" d="M8.64 11.044h-.833v-5.75H6.273a.546.546 0 1 0 0 1.092h.4v4.658H5.84a.546.546 0 0 0-.546.546c0 .301.244.546.546.646l2.783-.1a.546.546 0 1 0 0-1.092z"/>
      </g>
    </g>
    <path id="Rectangle" d="M0 0h36v36H0z"/>
  </g>
</svg>
